packages/ui-icons/svg/Line/upload.svg

<svg viewBox="0 0 1920 1920" version="1.1" xmlns="http://www.w3.org/2000/svg">
    <path d="M1838.86029,1451.57632 L1920,1532.94589 L1558.4341,1894.51179 L361.565904,1894.51179 L0,1532.94589 L81.2546391,1451.57632 L409.146414,1779.58302 L1510.85359,1779.58302 L1838.86029,1451.57632 Z M962.333054,25 L1462.61798,525.284928 L1381.47827,606.654495 L1019.68251,244.973662 L1019.68251,1432.53262 L904.86867,1432.53262 L904.86867,244.973662 L543.187837,606.654495 L462.048126,525.284928 L962.333054,25 Z" stroke="none" stroke-width="1" fill-rule="evenodd"/>
</svg>

<svg viewBox="0 0 1920 1920" xmlns="http://www.w3.org/2000/svg">
    <path d="m1838.86 1451.576 81.14 81.37-361.566 361.566H361.566L0 1532.946l81.255-81.37 327.891 328.007h1101.708l328.006-328.007ZM962.333 25l500.285 500.285-81.14 81.37-361.795-361.681v1187.559H904.869V244.973L543.188 606.655l-81.14-81.37L962.333 25Z" fill-rule="evenodd"/>
</svg>
